X: 02087
T: The NAUGHTY 'NOOCHIE
C: Bob McQuillen Feb'74
B: Bob's Note Book 1&2 #87
R: jig
Z: 2019 John Chambers <jc:trillian.mit.edu>
M: 6/8
L: 1/8
K: G	% and Em
d \
| g2g dBd | g2g d2c | Bcd cBA | B G4 d | g2g dBd | gab a2g | aba gfe | f d4 d |
| e2e d2d | cdc B2B | cBA BAG | A2F D2d | g2g d2d | cde d2d | gab aga | b g4 ||
|| B \
| e2e d2d | cdc B2B | BcB AGF | G E4 B | e2e d2d | cdc B2B | BcB AGA | c B4 B |
| c2c B2B | ccc B2B | cBA BAG | A2G F2B | e2e d2d | cdc B2B | BcB AGF | G E4 |]
%%begintext align
%% With love to my Mother, "Grammy" Campbell,
%% who [cooked?] the super "Naughty 'Nookie"
%%endtext

%%sep 1 1 500

%%sep 1 1 500

